X: 38808
T: Sue's Dream
R: reel
M: 4/4
K: Eminor
|:B2zB zAGB|AGAB A2FD|GzBG cGBG|A3B ADGA|
B2zB zAGB|AGAB A2FD|GzDF zDED|1 E2zD EFGA:|2 E2zF GABc||
|:d2zd zefg|zgfe dcBA|GzBG cGBG|A3G ABc2|
d2zd zefg|zgfe dcBA|GzDF zDED|1 E2zF GABc:|2 E2zD EFGA||

